packages/merlin-www-assets/imports/gq/icons/gallery-grid.svg

<svg viewBox="0 0 18 18" xmlns="http://www.w3.org/2000/svg"><path d="m2.5 2.5h-2.5v-2.5h2.5zm7.75-2.5h-2.5v2.5h2.5zm7.75 0h-2.5v2.5h2.5zm-15.5 7.75h-2.5v2.5h2.5zm7.75 0h-2.5v2.5h2.5zm7.75 0h-2.5v2.5h2.5zm-15.5 7.75h-2.5v2.5h2.5zm7.75 0h-2.5v2.5h2.5zm7.75 0h-2.5v2.5h2.5z"/></svg>

<svg id="gallery-grid" xmlns="http://www.w3.org/2000/svg" viewBox="0 0 18 18"><title>gallery-grid</title><path d="M2.5,2.5H0V0H2.5V2.5ZM10.25,0H7.75V2.5h2.5V0ZM18,0H15.5V2.5H18V0ZM2.5,7.75H0v2.5H2.5V7.75Zm7.75,0H7.75v2.5h2.5V7.75Zm7.75,0H15.5v2.5H18V7.75ZM2.5,15.5H0V18H2.5V15.5Zm7.75,0H7.75V18h2.5V15.5Zm7.75,0H15.5V18H18V15.5Z"/></svg>
